X: 248
T: Henry King's Reel
C:Trevor Stuart
B: canberra pickers and fiddlers
B: tunes
M:4/4
R: reel
Q: 1/4=100
K:G
V:1 
DF|:"G" GFDC B,G,B,G, |"C" ECEG FDFG |"D" A2 AG FDFG |"D" AcAF DFDF |
"G" GFDC B,G,B,G, |"C" ECEG FDFG |"D" ABAF DFAc |"G" B2 G2 G3 F :|
|:"G" G2 G2 A [B3G3] |"C" [c6G6] Bc |"D" A3 G FDFG |"D" AcAF DFDF | 
"G" G2 G2 A [B3G3] |"C" [c6G6] BG] |"D" ABAF DFAc | "G "B2 G2 G4  :| 
% abcbook-tune_id 63ae8f1c7ebfbeecb05fa715
% abcbook-tune_composer_id 
% abcbook-link-0 https://www.youtube.com/watch?v=hmX1X1ybBuQ
% abcbook-boost 0
% abcbook-difficulty 0
% abcbook-tags canberra pickers and fiddlers,old time tunes,© free
% abcbook-tablature 
% abcbook-transpose 
% abcbook-tuning GDAD
% abcbook-lastupdated 1675828539545
% abcbook-src-url https://tunebook.net/scrape/tunes.abc
% abcbook-soundfonts 
% abcbook-repeats 1


